!!!ONB: MCCC : IFM0075_01 : Extracted Monophonic Melody
!!!COM: Mendelssohn, Felix
!!!OPR: Lieder ohne Worte
!!!OMV: 1
!!!SCT: Op.19b
!!!ODT: 1829///
**kern
*staff1
*clefG2
*k[f#c#g#d#]
*E:
*M4/4
4a
=3
4g#
4f#
4e
4ee
=4
4dd#
4cc#
4b
4cc#
=5
4a
8b
8f#
8g#
32a
32g#
32f#
32g#
8b
8a
=6
2g#
4f#
4a
=7
4g#
4f#
4e
4ee
=8
4dd#
4cc#
4b
4gg#
=9
2.cc#
4gg#
=10
2.cc#
4cc#
=11
4cc#
4ee
4dd#
8cc#
8g#
=12
2b
2a#
=13
2a
4g#
4g#
=14
4a#
4b
4dd#
8.cc#
16cc#
=15
4cc#
4b
4r
4a
=16
4g#
4f#
4e
4ee
=17
4dd#
4cc#
4b
4cc#
=18
4a
8b
8f#
8g#
32a
32g#
32f#
32g#
8b
8a
=19
2g#
4f#
4a
=20
4g#
4f#
4e
4ee
=21
4dd#
4cc#
4b
4gg#
=22
2.cc#
4gg#
=23
2.cc#
4cc#
=24
4cc#
4ee
4dd#
8cc#
8g#
=25
2b
2a#
=26
2a
4g#
4g#
=27
4a#
4b
4dd#
8.cc#
16cc#
=28
4cc#
4b
4r
8f#
8f#
=29
4g
8f#
8e
4a
8a
8a
=30
4b
8a
8g
4b#
8b#
8b#
=31
2r
4r
4ee[
=32
4ee]
4dd
2r
=33
1r
=34
4dd
4b
4a
4ee
=35
4dd
4b
4a
8b
8b#
=36
8b
8b
8dd
8b
8b
8a
8g#
8a
=37
1b
=38
4b
8dd[
8dd]
8b
8b
8a
8a
=39
4b[
2b]
4a#
=40
2b
4r
4b#
=41
2b
4r
4a
=42
4g#
4f#
4e
4ee
=43
4dd#
4cc#
4b
4cc#
=44
8a
8cc#
8b
8f#
8g#
8g#
8b
8a
=45
2g#
4f#
8g#
8a
=46
4b
4g#
4f#
4cc#
=47
4b
4g#
4f#
4ee
=48
4ee
4b[
8b]
8b
8cc#
8b
=49
2a
8g#
8f#
8g#
8a
=50
4b
4g#
4f#
4cc#
=51
4b
4g#
4f#
4ee
=52
4dd#
4cc#
8b
8dd#
8ff#
8aa
=53
8gg#
8dd#
8ff#
8ee
8dd#
8cc#
8a
8f#
=54
2e
2d#
=55
2d
4c#
4c#
=56
4d#
4e
4g#
8.f#
16e
=57
2e
4r
4d
=58
2c#
4r
4B#
=59
2B
4r
8g#
8f#
=60
2e
[2g#
=61
4g#_
4g#]
2e
=62
[1e
=63
1e]
==
*-
